X: 1
T: Antoinette
C: Scott Joplin
%%abc-version 2.0
%%abcx-abcm2ps-target-version 5.9.1 (29 Sep 2008)
%%abc-creator hum2abc beta
%%abcx-conversion-date 2021/07/20 09:00:57
%%abc-copyright 2021 Craig Stuart Sapp
%%abc-edited-by Craig Stuart Sapp
%%abc-edited-by Craig Stuart Sapp
%%abcx-initial-encoding-date 2005/02/04
%%humdrum-veritas 4211728860
%%humdrum-veritas-data 474010816
%%removed 0's from note length
%%linebreak <none>
%%barnumbers 0
L: 1/8
M: 6/8
N: Derived from antoinette.krn
Q: "TRIO" 3/8=96
%%staves {1 2}
V: 1 clef=treble
V: 2 clef=bass
K: G
[V:1] G^GA Bc^c | 
[V:2] G,^G,A, B,C^C | 
[V:1] d^de cBA | 
[V:2] D^DE CB,A, | 
[V:1] GAB AFE | 
[V:2] G,A,B, A,F,E, | 
[V:1] D2z!accent![d2F2D2]z ]|:  
[V:2] D,2z!accent![D,2D,,2]z ]|:  
[V:1] [B3G3D3][d2B2D2][bdB] | 
[V:2] [G,2G,,2][B,G,D,][G,2G,,2][DB,G,] | 
[V:1] [b2e2B2][aeA][g2c2G2][eGE] | 
[V:2] [C2C,2][ECG,][E2E,2][CC,] | 
[V:1] [d3G3D3][B3G3D3]- | 
[V:2] [B,2B,,2][B,G,D,][G,2G,,2][B,G,D,] | 
[V:1] [BGD][dB][ec] [dB][cA][BG] | 
[V:2] G,,z[B,G,D,] D,z[B,G,] | 
[V:1] [A3F3][G3E3] | 
[V:2] ^D,2[CA,F,]E,2[B,G,] | 
[V:1] [c3A3][B3G3] | 
[V:2] F,2[DCA,]G,2[DB,] | 
[V:1] [e3c3G3][d2B2G2][BGD] | 
[V:2] C,2[ECG,][B,2B,,2][G,G,,] | 
[V:1] z ed cBA & [A3F3D3]-[A3F3D3] | 
[V:2] [F,F,,]z[CF,D,] [D,D,,]z[CF,D,] | 
[V:1] [B3G3D3][d2B2D2][bdB] | 
[V:2] [G,2G,,2][B,G,D,][G,2G,,2][DB,G,] | 
[V:1] [b2e2B2][aeA][g2c2G2][eGE] | 
[V:2] [C2C,2][ECG,][E2E,2][CC,] | 
[V:1] [d3G3D3][d3B3^G3] | 
[V:2] [B,2B,,2][B,G,D,][E,2E,,2][B,^G,E,] | 
[V:1] z [cA][dB] [ec][fd][ge] | 
[V:2] [A,A,,]z[CA,E,] C,z[CA,E,] | 
[V:1] !accent![g3^A3G3]!accent![d3B3G3] | 
[V:2] !accent![^C,2^C,,2][^A,G,E,]!accent![D,2D,,2][B,G,D,] | 
[V:1] !accent![^c3^A3G3]!accent!d2=e & x3[B3G3] | 
[V:2] !accent![_E,2_E,,2][^C^A,G,]!accent![D,2D,,2][DB,G,] | 
[V:1] B3A3 & z2[GE^C]z2[FD=C] |[1 
[V:2] [D,3D,,3][D,3D,,3] | 
[V:1] [G3D3B,3]-[G2D2B,2][cFD] :|][2 
[V:2] [G,G,,]E,D, C,B,,A,, :|]  
[V:1] [G2D2B,2]d ddd ]|: 
[V:2] [G,2G,,2]zz3 ]|:  
[V:1] [a2f2]>-[a2f2][ge][fd] & c3-c3 | 
[V:2] [D,D,,][E,E,,][^E,^E,,] [F,F,,][G,G,,][^G,^G,,] | 
[V:1] [e2c2]>-[e2c2][dB][cA] & F3-F3 | 
[V:2] [A,A,,][F,F,,][E,E,,] [D,D,,][E,E,,][F,F,,] | 
[V:1] B2[cA][d3B3]- & G3G3- | 
[V:2] [G,2G,,2][B,G,D,] [G,G,,][F,F,,][E,E,,] | 
[V:1] [dBG]GA BAG | 
[V:2] [D,D,,]z[B,G,D,] [G,G,,]z[B,G,D,] | 
[V:1] [A2F2][BG][c3A3]- | 
[V:2] [F,2F,,2][CF,D,] [A,A,,][F,F,,][E,E,,] | 
[V:1] [cA]AB cBA | 
[V:2] [D,D,,]z[CF,D,] [F,F,,]z[CF,D,] | 
[V:1] B2[cA][d3B3]- & G3G3- | 
[V:2] [G,2G,,2][B,G,D,] [B,B,,][A,A,,][G,G,,] | 
[V:1] [d2B2G2]d ddd | 
[V:2] [D2D,2]zz3 | 
[V:1] [a2f2]>-[a2f2][ge][fd] & c3-c3 | 
[V:2] [D,D,,][E,E,,][^E,^E,,] [F,F,,][G,G,,][^G,^G,,] | 
[V:1] [e2c2]>-[e2c2][dB][cA] & F3-F3 | 
[V:2] [A,A,,][F,F,,][E,E,,] [D,D,,][E,E,,][F,F,,] | 
[V:1] B2[cA][d3B3] & G3G3 | 
[V:2] [G,2G,,2][B,G,D,] [=F,=F,,][E,E,,][D,D,,] | 
[V:1] e2>-e2ze & [c2G2]>-[c2G2] z z | 
[V:2] [C,C,,][CG,E,][CG,E,] [CG,E,] z z | 
[V:1] !accent!_e2>-e2zd & [^A2G2]>-[A2G2] z z | 
[V:2] !accent![^C,^C,,][^C^A,G,][CA,G,] [CA,G,] z z | 
[V:1] !accent!^c2>-c2z^A & [^A2G2]>-[A2G2] z z | 
[V:2] !accent![_E,_E,,][^C^A,G,][CA,G,] [CA,G,] z z | 
[V:1] Bzd cEF |[1 
[V:2] [D,D,,]z[DB,G,] [D,D,,]z[DCA,] | 
[V:1] G2d ddd :|][2 
[V:2] [D2B,2G,2]zz3 :|]  
[V:1] G2z[g2d2B2G2]z || 
[V:2] [D2B,2G,2]z[G,2G,,2]z ||  
[V:1]  [K:C] [e3c3G3E3][g3e3c3G3] | 
[V:2]  [K:C] C,E,G, CG,E, | 
[V:1] [c'3g3e3c3][g3e3c3G3] | 
[V:2] C,E,G, CG,E, | 
[V:1] [a6^f6^d6c6A6] | 
[V:2] C,^D,^F, A,C^D | 
[V:1] [g6e6c6G6] | 
[V:2] EDC A,G,E, | 
[V:1] [e3c3G3E3][c'3g3e3c3] | 
[V:2] C,E,G, CG,E, | 
[V:1] [g3e3c3G3][e3c3G3E3] | 
[V:2] C,G,C G,E,C, | 
[V:1] d6- & [c6_A6F6] | 
[V:2] _A,,B,,C, D,F,_A, | 
[V:1] d3x3 & [B3G3F3]!accent!!arpeggio![g3d3B3F3] | 
[V:2] G,D,B,, G,,A,,B,, | 
[V:1] [e3c3G3E3][g3e3c3G3] | 
[V:2] C,E,G, CG,E, | 
[V:1] [c'3g3e3c3][d'3b3^g3d3] | 
[V:2] C,G,C B,^G,E, | 
[V:1] [c'6a6e6c6] | 
[V:2] A,E,C, A,,^G,,A,, | 
[V:1] [a6^f6^d6c6A6] | 
[V:2] ^F,,A,,B,, C,^D,^F, | 
[V:1] [g3e3c3G3][e3c3A3E3] | 
[V:2] G,E,G,, A,E,A,, | 
[V:1] [c3A3^F3]d3 & x3[B3G3=F3] | 
[V:2] D,E,^F, G,A,B, | 
[V:1] [c6G6E6]- | 
[V:2] C^G,A, ^F,=G,E, | 
[V:1] [c2G2E2]z[c2C2][BB,] ]|:  
[V:2] C,2z[C,2C,,2][B,,B,,,] ]|:  
[V:1] [_B2_B,2][_G_G,][_E3_E,3]- | 
[V:2] [_B,,2_B,,,2][_G,,_G,,,][_E,,3_E,,,3]- | 
[V:1] [E2E,2][=E=E,][F3F,3] | 
[V:2] [E,,2E,,,2][=E,,=E,,,][F,,3F,,,3] | 
[V:1] [_c3_C3]-[c2C2][cC] | 
[V:2] [_C,3_C,,3]-[C,2C,,2][C,C,,] | 
[V:1] [_B2_B,2]zz3 | 
[V:2] [_B,,2_B,,,2]zz3 | 
[V:1] [_g_ecA][gecA][gecA] [gecA][gecA][gecA] | 
[V:2] A,,C,_E, _G,A,C | 
[V:1] [f_d_B][fdB][fdB] [fdB][fdB][fdB] | 
[V:2] _B,=E,F, _D,_B,,F,, | 
[V:1] [_g_ecA][gecA][gecA] [gecA][gecA][gecA] | 
[V:2] A,,C,_E, _G,A,C | 
[V:1] [f2_d2_B2]z[_B2_B,2][AA,] | 
[V:2] _B,2z[_B,,2_B,,,2][A,,A,,,] | 
[V:1] [_A2_A,2][_F_F,][_D3_D,3]- | 
[V:2] [_A,,2_A,,,2][_F,,_F,,,][_D,,3_D,,,3]- | 
[V:1] [D2D,2][=D=D,][_E3_E,3] | 
[V:2] [D,,2D,,,2][=D,,=D,,,][_E,,3_E,,,3] | 
[V:1] [__B3__B,3]-[B2B,2][BB,] | 
[V:2] [__B,,3__B,,,3]-[B,,2B,,,2][B,,B,,,] | 
[V:1] [_A2_A,2]zz3 | 
[V:2] [_A,,2_A,,,2]zz3 | 
[V:1] [_f_d_BG][fdBG][fdBG] [fdBG][fdBG][fdBG] | 
[V:2] G,,_B,,_D, _F,G,_B, | 
[V:1] [_e_c_A][ecA][ecA] [ecA][ecA][ecA] | 
[V:2] _A,=D,_E, _C,_A,,_E,, | 
[V:1] [_f_d_BG][fdBG][fdBG] [fdBG][fdBG][fdBG] | 
[V:2] G,,_B,,_D, _F,G,_B, | 
[V:1] [_e2_c2_A2]_EA2_B | 
[V:2] _A,2zz3 | 
[V:1] [=c^F^D][cFD][cFD] [cFD][cFD][cFD] | 
[V:2] [_A,,_A,,,][A,,A,,,][A,,A,,,] [A,,A,,,][A,,A,,,][A,,A,,,] | 
[V:1] [cGE][cGE][cGE] [cGE][cGE][cGE] | 
[V:2] [G,,G,,,][G,,G,,,][G,,G,,,] [G,,G,,,][G,,G,,,][G,,G,,,] | 
[V:1] [c=F=D][cFD][cFD] [cFD][cFD][cFD] | 
[V:2] [_A,,_A,,,][A,,A,,,][A,,A,,,] [A,,A,,,][A,,A,,,][A,,A,,,] | 
[V:1] [B2F2D2]z!accent!!arpeggio![g2d2B2F2]z | 
[V:2] [G,,2G,,,2]z!accent![G,,2G,,,2]z | 
[V:1] [e3c3G3E3][g3e3c3G3] | 
[V:2] C,E,G, CG,E, | 
[V:1] [c'3g3e3c3][g3e3c3G3] | 
[V:2] C,E,G, CG,E, | 
[V:1] [a6^f6^d6c6A6] | 
[V:2] C,^D,^F, A,C^D | 
[V:1] [g6e6c6G6] | 
[V:2] EDC A,G,E, | 
[V:1] [e3c3G3E3][c'3g3e3c3] | 
[V:2] C,E,G, CG,E, | 
[V:1] [g3e3c3G3][e3c3G3E3] | 
[V:2] C,G,C G,E,C, | 
[V:1] d6- & [c6_A6F6] | 
[V:2] _A,,B,,C, D,F,_A, | 
[V:1] d3x3 & [B3G3F3]!accent!!arpeggio![g3d3B3F3] | 
[V:2] G,D,B,, G,,A,,B,, | 
[V:1] [e3c3G3E3][g3e3c3G3] | 
[V:2] C,E,G, CG,E, | 
[V:1] [c'3g3e3c3][d'3b3^g3d3] | 
[V:2] C,G,C B,^G,E, | 
[V:1] [c'6a6e6c6] | 
[V:2] A,E,C, A,,^G,,A,, | 
[V:1] [a6^f6^d6c6A6] | 
[V:2] ^F,,A,,B,, C,^D,^F, | 
[V:1] [g3e3c3G3][e3c3A3E3] | 
[V:2] G,E,G,, A,E,A,, | 
[V:1] [c3A3^F3][d3B3G3=F3] |[1 
[V:2] D,E,^F, G,A,B, | 
[V:1] [c6G6E6]- | 
[V:2] C^G,A, ^F,=G,E, | 
[V:1] [c2G2E2]z[c2C2][BB,] :|][2 
[V:2] C,2z[C,2C,,2][B,,B,,,] :|]  
[V:1] [c6G6E6]- | 
[V:2] C^G,A, ^F,=G,E, | 
[V:1] [c2G2E2]z !accent![c'gec] z z |]  
[V:2] C,2z !accent![C,C,,] z z |]  


